!!!!SEGMENT: pl-sa--552-a-ix-32--018_anonim-polonaise.krn
!!!id: 18xx:529
!!!COM: Anonim
!!!OTL: Polonaise
!!!PDT:
!!!SMS-siglum: PL-SA
!!!SMS-shelfmark: 552/A IX 32
!!!NIFC-rismID: 1001069531
!!!URL-scan: http://bc.bdsandomierz.pl/dlibra/publication/1308/edition/1276/content
!!!ONB-nifc: Str. 10, s. 1-4
!!!SMS-variant:
!!!SMS-altvar:
**kern	**kern
*part1	*part1
*staff2	*staff1
*I"Piano	*
*I'pf	*
*clefF4	*clefG2
*k[]	*k[]
*M3/4	*M3/4
*>[A,A,B,B,C,C,D,D,C,D]	*>[A,A,B,B,C,C,D,D,C,D]
=1	=1
*>A	*>A
!LO:TX:a:t=P:problem:jedno metrum na środku	!LO:TX:a:i:t=Polonaise
!LO:TX:a:t=P:problem:omyłkowo wpisany klucz F3 na początku linijki: global	!
8CC/L	8ccL 8c/
8C/	16ccL 16c/
.	16ccJ 16c/
8GG/	8cc 8c/
8EE/J	8ccJ 8c/
4CC/	16cc\LL
.	16dd\
.	16ee\
.	16ff\JJ
=2	=2
!LO:TX:a:t=P:problem:mixed beam	!
8GG/L	8ggL 8g\
8G\J	16ggL 16g\
.	16ggJJ 16g\
8D\L	8r
8BB\J	8gg\L
4GG/	8aa\
.	8bb\J
=3	=3
8CL 8CC/	8cccL 8ee\
8GG/J	8bb 8dd\
*rep	*
8CL 8CC/	8ccc 8ee\
8GG/J	8bbJ 8dd\
*Xrep	*
*rep	*
8CL 8CC/	8cccL 8ee\
8GG/J	8dddJ 8ff\
*Xrep	*
=4	=4
*clefG2	*
!LO:TX:a:t=P:problem:klucz przed kreską taktową, ale wtedy się nie wyświetla	!
8eL 8c/	8.eeeL 8.gg\
8G/J	.
.	16dddJk 16ff\
*rep	*
8eL 8c/	4ccc 4ee\
8G/J	.
*Xrep	*
*rep	*
8eL 8c/	4r
8G/J	.
*Xrep	*
=5	=5
*clefF4	*
!LO:TX:a:t=P:problem:omyłkowo wpisany klucz F2, klucz przed kreską taktową, ale wtedy się nie wyświetla	!
8G 8GG\	8.ff\L
*clefG2	*
8a 8f 8G/	.
.	16ee\Jk
*tremolo	*2\right
8f 8d 8G/L	2dd\
8f 8d 8G/	.
8f 8d 8G/	.
8f 8d 8G/J	.
*Xtremolo	*
*clefF4	*
=6	=6
!LO:TX:a:t=P:problem:omyłkowo wpisany klucz F2	!
8C 8CC/	8.ee\L
*clefG2	*
8e 8c 8G/	.
.	16dd\Jk
*tremolo	*
8g 8e 8G/L	2cc\
8g 8e 8G/	.
8g 8e 8G/	.
8g 8e 8G/J	.
*Xtremolo	*
=7	=7
8fL 8d/	16dd\LL
.	16cc\
8G/J	16b\
.	16a\JJ
*rep	*
8fL 8d/	8g\L
8G/J	8g\
*Xrep	*
*rep	*
8fL 8d/	8a\
8G/J	8b\J
*Xrep	*
=8	=8
8eL 8c/	16cc\LL
.	16dd\
8G/J	16ee\
.	16ff\JJ
*rep	*
8eL 8c/	16gg\LL
.	16aa\
8G/J	16bb\
.	16ccc\JJ
*Xrep	*
*rep	*
8eL 8c/	8gg\L
8G/J	8ee\J
*Xrep	*
=9	=9
*clefF4	*
!LO:TX:a:t=P:problem:klucz przed kreską taktową, ale wtedy się nie wyświetla	!
8GL 8GG\	16ff\LL
.	16gg\
8dJ 8B 8G\	16ff\
.	16ee\JJ
4d 4B 4G\	8ff\L
.	8fff 8ff\
8r	8eee 8ee\
8r	8dddJ 8dd\
=10	=10
!LO:TX:a:t=P:problem:mixed beam	!
8CL 8CC/	16ee\LL
.	16ff\
8eJ 8c 8G\	16ee\
.	16dd\JJ
!!LO:LB:g=original
4e 4c 4G\	8cc\L
.	8eee 8ee\
4r	8ddd 8dd\
.	8cccJ 8cc\
=11	=11
*clefG2	*
8fL 8d/	16dd\LL
.	16ee\
8G/J	16dd\
.	16cc\JJ
*rep	*
8fL 8d/	8b\L
8G/J	8gg 8g\
*Xrep	*
*rep	*
8fL 8d/	8aa 8a\
8G/J	8bbJ 8b\
*Xrep	*
=12	=12
*clefF4	*
!LO:TX:a:t=P:problem:omyłkowo wpisany klucz F2, klucz przed kreską taktową, ale wtedy się nie wyświetla	!
8CL 8CC/	8cccL 8cc\
8GG/J	8bb 8b\
*rep	*
8CL 8CC/	8ccc 8cc\
8GG/J	8bbJ 8b\
*Xrep	*
*rep	*
8CL 8CC/	4ccc 4cc\
8GG/J	.
*Xrep	*
=13:|!|:	=13:|!|:
*>B	*>B
*	*^
2C 2GG 2EE 2CC/	4ee/	8f#X\L
.	.	8g\J
.	4ee/	8f#\L
.	.	8g\J
4r	4ee/	8f#\L
.	.	8g\J
*	*v	*v
=14	=14
2C 2GG 2EE 2CC/	8.eeL 8.g/
.	16ddJk 16f/
.	4cc 4e/
4r	4r
=15	=15
8C#X 8CC#X/	8cc#XL 8c#X/
!LO:TX:a:t=unisono:problem:napis na pięciolinii zamiast dźwięków	!
8DLyy 8DD/yy	8dd 8d/
8D#Xyy 8DD#X/yy	8dd#X 8d#X/
8Eyy 8EE/yy	8ee 8e/
8Fyy 8FF/yy	8ff 8f/
8EJyy 8EE/yy	8eeJ 8e/
=16	=16
8GL 8GG\	16dd\LL
.	16ee\
8dJ 8B 8G\	16dd\
.	16cc\JJ
4d 4B 4G\	8b\L
.	8gg 8g\
4r	8aa 8a\
.	8bbJ 8b\
=17	=17
*clefG2	*
8eL 8c/	8ff#X\L
8G/J	8gg\
*rep	*
8eL 8c/	8ccc\
8G/J	8gg\
*Xrep	*
*rep	*
8eL 8c/	8eee\
8G/J	8ccc\J
*Xrep	*
=18	=18
8fL 8d/	16fff\LL
.	16eee\
8G/J	16ddd\
.	16ccc\JJ
*rep	*
8fL 8d/	4.bb\
8G/J	.
*Xrep	*
*rep	*
8fL 8d/	.
8G/J	8gg\
*Xrep	*
=19	=19
*clefF4	*
!LO:TX:a:t=P:problem:omyłkowo wpisany klucz F2, klucz przed kreską taktową, ale wtedy się nie wyświetla	!
8c 8C\	8cccL 8cc\
!LO:TX:a:t=unisono:problem:napis na pięciolinii zamiast dźwięków	!
8BLyy 8BB\yy	8bb 8b\
8Ayy 8AA\yy	8aa 8a\
8Gyy 8GG\yy	8gg 8g\
8Fyy 8FF\yy	8ff 8f\
8EJyy 8EE\yy	8eeJ 8e\
=20	=20
!LO:N:vis=4	!
8G 8GG\	8ggL 8g\
!LO:N:vis=4	!
8G 8GG\	16ggL 16g\
.	16ggJJ 16g\
!!LO:LB:g=original
4G 4GG/	8ggL 8g\
.	8ggJ 8g\
!	!LO:TX:a:i:t=Da Capo
4G 4GG/	4gg 4g\
=21:|!	=21:|!
*>C	*>C
*M3/4	*M3/4
!LO:TX:a:t=P:problem:jedno metrum na środku	!LO:TX:b:i:t=Trio
8BL 8G#X\	8bL 8g#X/
8E\J	8e/
*rep	*
8BL 8G#\	8b 8g#/
8E\J	8e/
*Xrep	*
*rep	*
8BL 8G#\	8b 8g#/
8E\J	8e/J
*Xrep	*
=22	=22
8cL 8A\	8ee\L
8E\J	8dd\J
*rep	*
8cL 8A\	16cc\LL
.	16dd\
8E\J	16cc\
.	16b\JJ
*Xrep	*
*rep	*
8cL 8A\	4a\
8E\J	.
*Xrep	*
=23	=23
8BL 8G#X\	8bL 8g#X/
8E\J	8bJ 8g#/
*rep	*
8BL 8G#\	8eeeL 8ee\
8E\J	8ddd 8dd\
*Xrep	*
*rep	*
8BL 8G#\	8ccc 8cc\
8E\J	8bbJ 8b\
*Xrep	*
=24	=24
8cL 8A\	8.cccL 8.cc\
8E\J	.
.	16bbJk 16b\
*rep	*
8cL 8A\	4aa 4a\
8E\J	.
*Xrep	*
*rep	*
8cL 8A\	4r
8E\J	.
*Xrep	*
=25	=25
*clefG2	*
!LO:TX:a:t=P:problem:klucz przed kreską taktową, ale wtedy się nie wyświetla	!
8g 8d 8B 8G/	8r
!	!LO:TUP:a:problem:klamra łukowa
8r	24dd\LL
.	24dd\
.	24dd\JJ
8g 8d 8B 8G/	8r
!	!LO:TUP:a:problem:klamra łukowa
8r	24dd\LL
.	24dd\
.	24dd\JJ
4g 4d 4B 4G/	8dd\L
.	16ee\L
.	16ff#X\JJ
!LO:CL:ed	!
*clefF4	*
=26	=26
8BL 8G\	8.gg\L
8d\J	.
.	16bb\Jk
*rep	*
8BL 8G\	4gg\
8d\J	.
*Xrep	*
*rep	*
8BL 8G\	4r
8d\J	.
*Xrep	*
=27	=27
4d 4A 4F#X 4D\	8dd\L
.	8ddd\
4r	8ccc#X\
.	8cccn\
4r	8aa\
.	8ff#X\J
=28	=28
4d 4B 4G\	8.ggL 8.b\
.	16ff#X\Jk
4r	8gg\L
.	8ffn\
4r	8ee\
!	!LO:TX:a:t=P:problem:brak znaku repetycji na kresce taktowej
.	8dd\J
!!LO:LB:g=original
=29:|!|:	=29:|!|:
*>D	*>D
4C 4CC/	16ggLL 16ee\
.	16aa 16ff\
.	16gg 16ee\
.	16ffJJ 16dd\
*clefG2	*
8eL 8c/	8eeL 8cc\
8G/J	8gg 8ee\
*rep	*
8eL 8c/	8ee 8cc\
8G/J	8ggJ 8ee\
*Xrep	*
=30	=30
8fL 8d/	8ggL 8ee\
8G/J	8ff#XJ 8dd\
*rep	*
!	!LO:TX:a:t=P:problem:mixed beam
8fL 8d/	8ffnL 8dd\
8G/J	16g/L
.	16g/JJ
*Xrep	*
*rep	*
8fL 8d/	8g/L
8G/J	8g/J
*Xrep	*
=31	=31
*rep	*
8fL 8d/	8.ffL 8.dd\
8G/J	.
.	16eeJk 16cc\
*Xrep	*
*rep	*
8fL 8d/	8ddL 8b\
8G/J	8ddJ 8b\
*Xrep	*
*rep	*
8fL 8d/	8ggL 8ee\
8G/J	8ffJ 8dd\
*Xrep	*
=32	=32
8eL 8c/	8.ffL 8.dd\
8G/J	.
.	16eeJk 16cc\
*rep	*
8eL 8c/	4ee 4cc\
8G/J	.
!	!LO:TX:b:i:t=Trio Da Capo
*Xrep	*
*rep	*
8eL 8c/	4r
8G/J	.
*Xrep	*
=:|!	=:|!
*-	*-
!!!system-decoration: {s1,s2}
!!!ENC: Marcin Jachim
!!!END: 2020-06-18
!!!ENC: Marta Lawrence
!!!END: 2020-12-12
